src/icons/file-scss.svg

<svg width="16" height="16" viewBox="0 0 16 16" fill="none" xmlns="http://www.w3.org/2000/svg">
<path d="M7 6.49994C7.16667 6.66661 7.8 6.99994 9 6.99994C10.5 6.99994 13.5 5.99994 13.5 3.49994C13.5 2 12 1.49994 10.5 1.49994C8 1.49994 2.5 3.49994 2.5 6.49994C2.5 9.99996 6.5 8.49995 6.5 12C6.5 13 5.5 14.4999 4 14.5C3.34375 14.5 3 14 3 13.5C3 12.5938 4.5 10.5 7.5 10.5C9.89062 10.5 10 11.5 10 12C10 12.4 9.66667 12.8333 9.5 13" stroke="#F1667F" stroke-width="1.5" stroke-linecap="round"/>
</svg>

<svg xmlns="http://www.w3.org/2000/svg" width="16" height="16" fill="none"><path stroke="#F1667F" stroke-linecap="round" stroke-width="1.5" d="M7 6.5c.167.167.8.5 2 .5 1.5 0 4.5-1 4.5-3.5 0-1.5-1.5-2-3-2-2.5 0-8 2-8 5 0 3.5 4 2 4 5.5 0 1-1 2.5-2.5 2.5-.656 0-1-.5-1-1 0-.906 1.5-3 4.5-3 2.39 0 2.5 1 2.5 1.5 0 .4-.333.833-.5 1"/></svg>
